X: 33
T:Pilgrim,The. BC.33
M:6/8
L:1/8
Q:120
S:Benjamin Cooke MS.circa 1770, F.Kidson Coll.
R:Jig
O:England
A:Uncertain, probably northern
Z:vmp.John Bagnall
K:D
A | d2 d e2 e | f d z z2 A | (Bc) d A2 G | F D z z2 c |!
 "tr"(dc) d "tr"ed e | f3 e2 c | (df) e (dc) B | "cr"A3-A2:|!
|: A | A2 A (AG) F | G2 B e2 G | G2 G (GF) E | (F2A) d2 F |!
 (GA) B (AF) D | (B2c)  d3 | egf (gec) | d3 d2 |!
|daf Bge | Agf gec | dfa |"END"d'2|]
